src/assets/images/svg/line-profile.svg

<svg width="24" height="24" viewBox="0 0 24 24" fill="none" xmlns="http://www.w3.org/2000/svg">
<path fill-rule="evenodd" clip-rule="evenodd" d="M11.9999 4.1142C9.91702 4.1142 8.22849 5.80272 8.22849 7.88563C8.22849 8.98189 8.69623 9.96891 9.44302 10.658C9.32458 10.71 9.20721 10.7657 9.09103 10.8249C8.1764 11.2912 7.35679 11.9687 6.67368 12.8094C5.99074 13.65 5.45532 14.6398 5.09198 15.7194C4.96076 16.1093 4.85275 16.5086 4.76828 16.9142C4.41402 18.6155 5.86496 19.8858 7.37134 19.8858H16.6285C18.1349 19.8858 19.5858 18.6155 19.2315 16.9142C19.1471 16.5086 19.0391 16.1093 18.9078 15.7194C18.5445 14.6398 18.0091 13.65 17.3261 12.8094C16.643 11.9687 15.8234 11.2912 14.9088 10.8249C14.7926 10.7657 14.6752 10.71 14.5568 10.658C15.3036 9.96892 15.7714 8.98189 15.7714 7.88563C15.7714 5.80272 14.0828 4.1142 11.9999 4.1142ZM9.77135 7.88563C9.77135 6.65482 10.7691 5.65705 11.9999 5.65705C13.2307 5.65705 14.2285 6.65482 14.2285 7.88563C14.2285 9.11643 13.2307 10.1142 11.9999 10.1142C10.7691 10.1142 9.77135 9.11643 9.77135 7.88563ZM9.79177 12.1994C10.4986 11.8391 11.2483 11.6572 11.9999 11.6572C12.7515 11.6572 13.5013 11.8391 14.2081 12.1994C14.9157 12.5602 15.5702 13.0949 16.1287 13.7823C16.6874 14.47 17.1369 15.2944 17.4456 16.2115C17.5569 16.5422 17.6489 16.8822 17.7211 17.2288C17.83 17.752 17.3944 18.3429 16.6285 18.3429H7.37134C6.60546 18.3429 6.16978 17.752 6.27874 17.2288C6.35091 16.8822 6.44294 16.5422 6.55425 16.2115C6.86289 15.2944 7.3124 14.47 7.87111 13.7823C8.42966 13.0949 9.0841 12.5602 9.79177 12.1994Z" fill="black"/>
</svg>

<svg xmlns="http://www.w3.org/2000/svg" viewBox="0 0 24 24"><defs><style>.cls-1{fill:none;}</style></defs><title>05</title><g id="line-profile"><rect class="cls-1" width="24" height="24"/><path d="M19.23,16.91a10,10,0,0,0-.32-1.19,9.52,9.52,0,0,0-1.58-2.91,7.77,7.77,0,0,0-2.42-2l-.35-.16a3.77,3.77,0,1,0-5.12,0l-.35.16a7.77,7.77,0,0,0-2.42,2,9.52,9.52,0,0,0-1.58,2.91,10,10,0,0,0-.32,1.19,2.54,2.54,0,0,0,2.6,3h9.26A2.53,2.53,0,0,0,19.23,16.91ZM12,5.66A2.23,2.23,0,1,1,9.77,7.89,2.23,2.23,0,0,1,12,5.66Zm4.63,12.68H7.37a1,1,0,0,1-1.09-1.11,8.48,8.48,0,0,1,.27-1,7.79,7.79,0,0,1,1.32-2.43A6,6,0,0,1,9.79,12.2a4.79,4.79,0,0,1,4.42,0,6,6,0,0,1,1.92,1.58,7.79,7.79,0,0,1,1.32,2.43,8.48,8.48,0,0,1,.27,1A1,1,0,0,1,16.63,18.34Z"/></g></svg>
